大富翁/skill.svg

<svg height="30.0px" stroke-miterlimit="10" style="fill-rule:nonzero;clip-rule:evenodd;stroke-linecap:round;stroke-linejoin:round;" version="1.1" viewBox="0 0 21.43 30" width="21.43px" xml:space="preserve" xmlns="http://www.w3.org/2000/svg" xmlns:xlink="http://www.w3.org/1999/xlink">
<defs/>
<path d="M1.42929 29.2857C1.17643 29.2857 0.955 29.1636 0.822857 28.95C0.685 28.7264 0.674286 28.4593 0.794286 28.2193L5.715 18.5621L5.715 7.14286L15.715 7.14286L15.715 18.5621L20.6386 28.2236C20.7557 28.4593 20.745 28.7257 20.6071 28.95C20.475 29.1636 20.2536 29.2857 20.0007 29.2857L1.42929 29.2857Z" fill="#aa00ff" fill-rule="nonzero" opacity="1" stroke="none"/>
<path d="M15.0007 7.85714L15.0007 18.3907L15.0007 18.7336L15.1564 19.0393L19.9964 28.5386C20.0021 28.55 20.0093 28.565 20.0007 28.5714L1.43286 28.5771C1.42071 28.565 1.42786 28.5493 1.42857 28.5479L6.27357 19.0386L6.42929 18.7336L6.42929 18.3907L6.42929 7.85714L15.0007 7.85714M16.4293 6.42857L5.00071 6.42857L5.00071 18.3907L0.155714 27.9C-0.326429 28.865 0.350714 30 1.42929 30L20.0007 30C21.0793 30 21.7564 28.865 21.2743 27.9L16.4293 18.3907L16.4293 6.42857L16.4293 6.42857Z" fill="#d58dff" fill-rule="nonzero" opacity="1" stroke="none"/>
<path d="M11.4293 14.2707L10.0007 14.2707C9.215 14.2707 8.57214 13.6279 8.57214 12.8421L8.57214 7.85714L5.00071 7.85714L5.00071 1.42857C5.00071 0.642857 5.64357 0 6.42929 0L15.0007 0C15.7864 0 16.4293 0.642857 16.4293 1.42857L16.4293 7.85714L12.8579 7.85714L12.8579 12.8421C12.8579 13.6279 12.215 14.2707 11.4293 14.2707Z" fill="#90caf9" fill-rule="nonzero" opacity="1" stroke="none"/>
<path d="M10.715 2.14286C9.53153 2.14286 8.57214 3.10225 8.57214 4.28571C8.57214 5.46918 9.53153 6.42857 10.715 6.42857C11.8985 6.42857 12.8579 5.46918 12.8579 4.28571C12.8579 3.10225 11.8985 2.14286 10.715 2.14286Z" fill="#ffffff" fill-rule="nonzero" opacity="1" stroke="none"/>
<path d="M10.715 3.57143C10.3205 3.57143 10.0007 3.89123 10.0007 4.28571C10.0007 4.6802 10.3205 5 10.715 5C11.1095 5 11.4293 4.6802 11.4293 4.28571C11.4293 3.89123 11.1095 3.57143 10.715 3.57143Z" fill="#37474f" fill-rule="nonzero" opacity="1" stroke="none"/>
<path d="M12.8579 19.2857C12.0689 19.2857 11.4293 19.9253 11.4293 20.7143C11.4293 21.5033 12.0689 22.1429 12.8579 22.1429C13.6468 22.1429 14.2864 21.5033 14.2864 20.7143C14.2864 19.9253 13.6468 19.2857 12.8579 19.2857ZM9.64357 22.8571C9.05184 22.8571 8.57214 23.3368 8.57214 23.9286C8.57214 24.5203 9.05184 25 9.64357 25C10.2353 25 10.715 24.5203 10.715 23.9286C10.715 23.3368 10.2353 22.8571 9.64357 22.8571ZM7.85786 26.4286C7.46337 26.4286 7.14357 26.7484 7.14357 27.1429C7.14357 27.5373 7.46337 27.8571 7.85786 27.8571C8.25235 27.8571 8.57214 27.5373 8.57214 27.1429C8.57214 26.7484 8.25235 26.4286 7.85786 26.4286ZM13.5721 25.7143C13.1777 25.7143 12.8579 26.0341 12.8579 26.4286C12.8579 26.8231 13.1777 27.1429 13.5721 27.1429C13.9666 27.1429 14.2864 26.8231 14.2864 26.4286C14.2864 26.0341 13.9666 25.7143 13.5721 25.7143ZM7.85786 20C7.46337 20 7.14357 20.3198 7.14357 20.7143C7.14357 21.1088 7.46337 21.4286 7.85786 21.4286C8.25235 21.4286 8.57214 21.1088 8.57214 20.7143C8.57214 20.3198 8.25235 20 7.85786 20Z" fill="#d58dff" fill-rule="nonzero" opacity="1" stroke="none"/>
</svg>

<svg height="30" viewBox="0 0 21.43 30" stroke-miterlimit="10" width="21.43" xmlns="http://www.w3.org/2000/svg" clip-rule="evenodd" stroke-linecap="round" stroke-linejoin="round"><path d="M1.43 29.286a.699.699 0 01-.607-.336.738.738 0 01-.029-.73l4.921-9.658V7.142h10v11.42l4.924 9.662a.738.738 0 01-.032.726.699.699 0 01-.606.336H1.429z" fill="#a0f"/><path d="M15 7.857v10.877l.156.305 4.84 9.5c.006.011.013.026.005.032l-18.568.006c-.012-.012-.005-.028-.004-.03l4.845-9.508.155-.305V7.857h8.572m1.428-1.428H5.001V18.39L.156 27.9c-.482.965.195 2.1 1.273 2.1h18.572c1.078 0 1.755-1.135 1.273-2.1l-4.845-9.51V6.43z" fill="#d58dff"/><path d="M11.43 14.27H10a1.433 1.433 0 01-1.428-1.428V7.857H5.001V1.43C5 .643 5.644 0 6.429 0h8.572c.785 0 1.428.643 1.428 1.429v6.428h-3.571v4.985c0 .786-.643 1.429-1.429 1.429z" fill="#90caf9"/><path d="M10.715 2.143a2.143 2.143 0 100 4.286 2.143 2.143 0 000-4.286z" fill="#fff"/><path d="M10.715 3.571a.714.714 0 100 1.429.714.714 0 000-1.429z" fill="#37474f"/><path d="M12.858 19.286a1.429 1.429 0 100 2.857 1.429 1.429 0 000-2.857zm-3.214 3.571a1.071 1.071 0 100 2.143 1.071 1.071 0 000-2.143zM7.858 26.43a.714.714 0 100 1.428.714.714 0 000-1.428zm5.714-.715a.714.714 0 100 1.429.714.714 0 000-1.429zM7.858 20a.714.714 0 100 1.429.714.714 0 000-1.429z" fill="#d58dff"/></svg>
